X: 1
T: Cl Na Grine
M: 4/4
L: 1/8
R: reel
K: Ador
eA~A2 (3Bcded|BG~G2 dG(3Bcd|eAeg fd~d2|fdfa gafg|eaag a2(3gfe|deBe dBGB|~A3c BG(3Bcd|edef g2fg:|
|:eceg fd~d2|cA~a2 ge~e2|b2ag ~e3g|~f3a gafa|gefd cA~a2|a2ed ceG2|~A3c BG(3Bcd|edef g2fg:|
